svg/fluentui-system-icons/ic_fluent_movies_and_tv_20_regular.svg

<svg width="20" height="20" viewBox="0 0 20 20" fill="none" xmlns="http://www.w3.org/2000/svg">
<path d="M16.1292 5.37911L7.03872 7.99995H16.4996C16.7758 7.99995 16.9996 8.22381 16.9996 8.49995V15.5C16.9996 16.8807 15.8803 18 14.4996 18H5.49962C4.11891 18 2.99962 16.8807 2.99962 15.5V8.57103L2.74204 7.67762C2.35955 6.35094 3.12497 4.96539 4.45164 4.5829L13.0994 2.0897C14.4261 1.70721 15.8116 2.47263 16.1941 3.7993L16.4712 4.76016C16.5477 5.0255 16.3946 5.30261 16.1292 5.37911ZM3.84142 7.88103L4.44754 7.70628L5.88925 5.20916L4.72867 5.54377C3.93266 5.77326 3.47341 6.60459 3.70291 7.40059L3.84142 7.88103ZM5.83283 7.30689L7.95383 6.69539L9.39554 4.19828L7.27147 4.81066C7.26493 4.82491 7.25767 4.83899 7.24968 4.85284L5.83283 7.30689ZM11.4601 5.68451L12.9018 3.1874L10.7761 3.80026C10.7684 3.81807 10.7596 3.83563 10.7497 3.85284L9.33911 6.29601L11.4601 5.68451ZM14.1436 3.03338C14.1378 3.04551 14.1315 3.05751 14.1247 3.06935L12.8454 5.28513L15.3718 4.55676L15.2333 4.07632C15.0785 3.53962 14.6502 3.15601 14.1436 3.03338ZM3.99962 8.99995V15.5C3.99962 16.3284 4.67119 17 5.49962 17H14.4996C15.328 17 15.9996 16.3284 15.9996 15.5V8.99995H3.99962Z" fill="#212121"/>
</svg>

<svg xmlns="http://www.w3.org/2000/svg" width="20" height="20"><path d="M16.13 5.38 7.038 8h9.46a.5.5 0 0 1 .5.5v7a2.5 2.5 0 0 1-2.5 2.5h-9A2.5 2.5 0 0 1 3 15.5V8.571l-.257-.893a2.5 2.5 0 0 1 1.71-3.095L13.1 2.09a2.5 2.5 0 0 1 3.095 1.71l.277.96a.5.5 0 0 1-.342.62ZM3.84 7.88l.607-.175L5.889 5.21l-1.16.335A1.5 1.5 0 0 0 3.703 7.4l.138.48Zm1.992-.574 2.12-.612 1.443-2.497-2.125.613a.51.51 0 0 1-.021.042L5.833 7.307Zm5.627-1.622 1.442-2.498-2.126.613a.517.517 0 0 1-.026.053L9.34 6.296l2.12-.611Zm2.684-2.652a.54.54 0 0 1-.02.036l-1.279 2.216 2.527-.728-.139-.48a1.5 1.5 0 0 0-1.09-1.044ZM4 9v6.5A1.5 1.5 0 0 0 5.5 17h9a1.5 1.5 0 0 0 1.5-1.5V9H4Z"/></svg>
